X: 11765
T: Elizabeth Adair
R: jig
M: 6/8
K: Dmajor
A2 F d2 c|B2 G e2 d|c>de ABc|d2 f AFG|
A2 F dcd|B2 G e2 d|c>de ABc|d3:|
f2 g a2 f|gfg e2 g|f2 a dd/e/f|ecA g2 e|
1 fag agf|gfg e2 d|c>de ABc|d3:|
2 f>ga g>ab|agf gg/f/e|f>ga A2 c|d3-||

